X:95
T:Harmless Molly - Fone
%%VWML:SBG-1-2-779-0
F:http://www.vwml.org/record/SBG/1/2/779
Z:Original Sibelius transcriptions by M. & S. Graebe
M:6/8
I:linebreak $
K:E
V:1 treble nm="P1"
V:1
 E2 |: G2 G GFE | B2 G B2 (3B/c/d/ | edc cBA | BAG G2 F2 B, :| cde BAG |$ FBB A2 B | %7
[M:4/4] c/d/e/c/ B2 GE3/2 E x/ | F/G/A/F/ G2 E2 B2 | c2 ec B G E2 | G2 FE F E4 | %11
T:Harmless Molly - ossia
%%VWML:SBG-1-2--0
F:http://www.vwml.org/record/SBG/1/2/
Z:Original Sibelius transcriptions by M. & S. Graebe
M:4/4
I:linebreak $
K:C
V:1 treble nm="P1" snm="Voice"
V:1
"^ossia" GB (3c/d/e/ (3eBA65/64 | G2 F2 E4 | z4 z4 | z4 z4 | z4 z4 | %5

